X: 1630
T: the Merry Soldier
%S: s:2 b:12(6+6)
B: O'Neills 1630
O: F.O'Neill
Z: Nick Terhorst, nickte@microsoft.com
Z: Compacted via repeats and multiple endings [JC]
M: C|
L: 1/8
K: G
   Bc | d^cdB dgfe | dcBc dgfe |[1,3 dBdB edcB | c2A2 A2 :|[2,4 decd BGAF | D2G2 G2 :|
|: Bc | dcBc  d2ed | cBAB c2dc |[1,3 BGBG cBAG | FGAF D2 :|[2,4 BgGB AcFA | D2G2 G2 :|
